X:1
T:Night on Bald Mountain (theme)
C:Modest Mussorgsky
M:2/4
L:1/8
Q:1/4=168
K:Em
% A section — Witches' Sabbath main theme, bars 1-16
E G E G | B A G F | E G E G | B4 |
G B G B | d c B A | G A B c | d4 |
E G E G | B d c B | A G F E | G2 E2 |
E G B d | c B A G | F G A B | E4 |]
